!! Isochronous pitch passage.
!! Bass-line.
!! From Fitzwilliam Virginal Book Vol. 1, No. 9, Thomas Morley, Variation 7, measure 1ff.
!! Bass
!! 4/4 meter
**kern	**metpos
*M4/4	*M4/4
*tb16	*tb16
=1	=1
16r	1
16GG	5
16AA	4
16BB	5
16C	3
16D	5
16E	4
16Fn	5
16G	2
16D	5
16F	4
16E	5
16D	3
16C	5
16BB	4
16AA	5
=2	=2
16GG	1
16D	5
16E	4
16F	5
16G	3
16A	5
16B	4
16c	5
16d	2
16e	5
16f	4
16e	5
16d	3
16c	5
16B	4
16A	5
=3	=3
16B	1
16G	5
16A	4
16B	5
16c	3
16d	5
16e	4
16f	5
16g	2
16a	5
16b	4
16cc	5
16dd	3
16cc	5
16b	4
16a	5
=4	=4
16r	1
16r	5
16fn	4
16e	5
16d	3
16c	5
16B	4
16A	5
16G	2
16c	5
16B	4
16A	5
16G	3
16F	5
16E	4
16D	5
=5	=5
16C	1
16AA	5
16BB	4
16C	5
16D	3
16E	5
16F	4
16G	5
16A	2
16AA	5
16G	4
16F	5
16E	3
16D	5
16C	4
16BB	5
=6	=6
16AA	1
16E	5
16F	4
16G	5
16A	3
16B	5
16c	4
16d	5
16e	2
16f	5
16g	4
16f	5
16e	3
16d	5
16c	4
16B	5
=7	=7
16c#	1
16A	5
16B	4
16c#	5
16d	3
16e	5
16f	4
16g	5
16a	2
16b	5
16cc#	4
16dd	5
16ee	3
16dd	5
16cc#	4
16b	5
=8	=8
16cc#	1
16a	5
16b-	4
16a	5
16g	3
16f	5
16e	4
16d	5
16c#	2
16B	5
16A	4
16B	5
16c#	3
16d	5
16e	4
16d	5
=9	=9
16c#	1
16A	5
16d	4
16c#	5
16B	3
16A	5
16c#	4
16B	5
16A	2
16G	5
16F	4
16E	5
16G	3
16F	5
16E	4
16D	5
=10	=10
16C#	1
16AA	5
16BB	4
16C#	5
16D	3
16Cn	5
16BB	4
16AA	5
16GG	2
16EE	5
16FF	4
16GG	5
16AA	3
16BB	5
16C#	4
16D	5
=11	=11
16E	1
16C	5
16D	4
16E	5
16F	3
16G	5
16A	4
16F#	5
16G	2
16F#	5
16G	4
16A	5
16B	3
16c	5
16d	4
16e	5
=12	=12
16d	1
16A	5
16c	4
16B	5
16A	3
16G	5
16F#	4
16E	5
16F#	2
16D	5
16G	4
16E	5
16D	3
16C	5
16BB	4
16AA	5
=13	=13
16GG	1
16BB	5
16C	4
16D	5
16E	3
16F	5
16G	4
16A	5
16B	2
16c	5
16d	4
16e	5
16f	3
16e	5
16d	4
16c	5
=14	=14
16B	1
16A	5
16G	4
16F	5
16E	3
16D	5
16C	4
16BB	5
16C	2
16BB	5
16AA	4
16GG	5
16FF	3
16EE	5
16D	4
16r	5
=15	=15
*-	*-
